!!! OTL: Berkowitz23
!!! Chapter: 1
!!! Section: I
!!! Page: 9
!!! Mode: 
!!! Encoder: DJB
**kern
*staff1
*I"Piano
=1-
*clefG2
*k[f#]
*G:
*M4/4
4g/
4b\
4dd\
4cc\
=2
4b\
4a/
2g/
=3
4g/
4b\
4dd\
4cc\
=4
2b\
2a/
=5
4dd\
4b\
4g/
4a/
=6
4b\
4cc\
4dd\
4ee\
=7
4dd\
4cc\
4b\
4a/
=8
2b\
2g/
==
*-
